images/sale__9.svg

<svg width="80" height="80" viewBox="0 0 80 80" fill="none" xmlns="http://www.w3.org/2000/svg">
<circle cx="40" cy="40" r="40" fill="white"/>
<path d="M28.6926 58.9298C30.0491 53.0911 30.5098 48.4709 30.6662 45.5118L30.6662 45.5104C30.8281 42.286 30.343 37.4868 29.389 30.9921L29.3854 30.9673L29.3793 30.943C29.2181 30.3011 29.0648 29.7708 28.9191 29.3508C28.7762 28.9393 28.6302 28.603 28.4744 28.3701C28.3977 28.2555 28.2953 28.1301 28.1584 28.0418C28.0061 27.9435 27.7937 27.8838 27.5661 27.9632C27.367 28.0327 27.2427 28.1803 27.1701 28.2919C27.0932 28.4099 27.0349 28.5479 26.9882 28.6877C26.9517 28.7968 26.927 28.9432 26.907 29.0918C26.8856 29.2518 26.8647 29.454 26.8442 29.6958C26.8031 30.1799 26.7617 30.8408 26.7193 31.6759C26.6346 33.3472 26.5449 35.733 26.4454 38.8335C26.2595 44.627 26.0389 52.9272 25.7514 63.7479C25.7353 64.3527 25.719 64.9653 25.7025 65.5859H22.6709C21.7426 54.718 21.2857 46.5019 21.5974 40.7584L21.5975 40.7551C21.6281 40.1168 21.6585 39.3306 21.6933 38.4324C21.8409 34.6197 22.0666 28.7888 22.7081 23.6793L22.7094 23.669L22.7102 23.6586C22.8584 21.8826 23.5959 19.6294 24.6651 17.1707C24.7414 17.1335 24.8446 17.0832 24.9748 17.0205C25.2911 16.8679 25.7665 16.641 26.401 16.3448C27.5817 15.7936 29.3132 15.0023 31.5954 14.0027C32.1216 15.6047 33.0325 16.7312 33.6133 17.4494C33.6532 17.4987 33.6915 17.5461 33.728 17.5916L33.7396 17.6059L33.7521 17.6194C35.9514 19.9783 39.0022 20.4725 40.5085 20.4725C42.0468 20.4725 44.2564 20.1193 46.5952 17.6261C47.2595 16.9612 48.0123 15.6177 48.7515 13.6653C50.816 14.5459 52.3066 15.24 53.2349 15.7493L53.2349 15.7493C53.8875 16.1073 54.7574 16.717 55.8521 17.5925C57.0762 20.3555 57.6899 22.5008 57.9975 23.8778C59.0731 29.3709 59.2319 34.5171 59.3543 38.4808C59.3755 39.1688 59.3957 39.8212 59.4193 40.4336L59.4192 40.4336L59.4198 40.4438C59.7311 45.7156 59.1202 54.0836 57.8794 65.5859H55.1504C55.0729 63.4802 55.0047 61.5003 54.9411 59.6517C54.7537 54.2069 54.6055 49.9006 54.3717 46.873C54.2403 45.1702 54.1087 43.1145 53.9543 40.7014C53.9222 40.201 53.8892 39.6853 53.855 39.1541C53.6561 36.0633 53.4172 32.4558 53.0988 28.3326L52.1086 28.2804C50.6748 36.0549 50.0321 41.7947 50.0321 45.4854C50.0321 49.0989 50.7997 53.6046 52.0195 58.9743C47.7595 60.7549 44.1539 61.624 41.6224 61.624C39.0621 61.624 34.6664 60.7389 28.6926 58.9298Z" stroke="#010066"/>
</svg>

<svg width="80" height="80" fill="none" xmlns="http://www.w3.org/2000/svg"><circle cx="40" cy="40" r="40" fill="#fff"/><path d="M28.693 58.93c1.356-5.839 1.817-10.46 1.973-13.418v-.002c.162-3.224-.323-8.023-1.277-14.518l-.004-.025-.006-.024a19.416 19.416 0 0 0-.46-1.592c-.143-.412-.289-.748-.445-.98a1.133 1.133 0 0 0-.316-.33.672.672 0 0 0-.592-.078.793.793 0 0 0-.396.329 1.737 1.737 0 0 0-.182.396c-.036.109-.061.255-.081.404-.021.16-.042.362-.063.604a61.984 61.984 0 0 0-.125 1.98 419.438 419.438 0 0 0-.274 7.158c-.186 5.793-.406 14.093-.694 24.914l-.049 1.838h-3.031c-.928-10.868-1.385-19.084-1.074-24.828v-.003c.031-.638.061-1.424.096-2.323.148-3.812.374-9.643 1.015-14.753l.001-.01.001-.01c.148-1.776.886-4.03 1.955-6.488l.31-.15c.316-.153.791-.38 1.426-.676 1.18-.551 2.912-1.343 5.194-2.342.527 1.602 1.438 2.728 2.018 3.446l.115.143.012.014.012.013c2.2 2.36 5.25 2.854 6.756 2.854 1.539 0 3.748-.354 6.087-2.847.665-.665 1.417-2.008 2.157-3.96 2.064.88 3.555 1.574 4.483 2.083.653.358 1.522.968 2.617 1.844 1.224 2.762 1.838 4.908 2.146 6.285 1.075 5.493 1.234 10.64 1.356 14.603.022.688.042 1.34.065 1.953v.01c.312 5.272-.299 13.64-1.54 25.142H55.15a2431.21 2431.21 0 0 1-.209-5.934c-.187-5.445-.336-9.751-.57-12.779a506.754 506.754 0 0 1-.417-6.172l-.099-1.547c-.199-3.09-.438-6.698-.756-10.821l-.99-.053c-1.434 7.775-2.077 13.515-2.077 17.205 0 3.614.768 8.12 1.988 13.49-4.26 1.78-7.866 2.649-10.398 2.649-2.56 0-6.956-.885-12.93-2.694Z" stroke="#010066"/></svg>
